assets/images/block-icon-reviews.svg

<svg width="22" height="22" viewBox="0 0 22 22" xmlns="http://www.w3.org/2000/svg"><path d="M11 2l-3 6-6 .75 4.13 4.62-1.13 6.63 6-3 6 3-1.12-6.63 4.12-4.62-6-.75-3-6zm0 2.24l2.34 4.69 4.65.58-3.18 3.56.87 5.15-4.68-2.34v-11.64zm3.681-3.54h2.592c1.449 0 2.232.648 2.232 1.823 0 1.071-.819 1.782-2.102 1.827l2.075 2.651h-1.26l-2.007-2.651h-.513v2.651h-1.017v-6.3zm2.565.954h-1.548v1.773h1.548c.819 0 1.202-.297 1.202-.905 0-.599-.405-.869-1.202-.869z"/></svg>

<svg xmlns="http://www.w3.org/2000/svg" width="22" height="22"><path d="M11 2L8 8l-6 .75 4.13 4.62L5 20l6-3 6 3-1.12-6.63L20 8.75 14 8l-3-6zm0 2.24l2.34 4.7L18 9.5l-3.2 3.57.88 5.15L11 15.88V4.24zM14.68.7h2.6c1.44 0 2.22.65 2.22 1.82 0 1.07-.8 1.8-2.1 1.83L19.48 7h-1.26l-2-2.65h-.52V7h-1.02V.7zm2.57.95H15.7v1.78h1.55c.82 0 1.2-.3 1.2-.9 0-.6-.4-.88-1.2-.88z"/></svg>
